!!!COM: Robert Schumann
!!!CNT: Deutsch
!!!TXO: Deutsch
!!!OTL: Lieb der Braut No. 2
!!!LYR: Ru2ckert
!!!OPR: Myrten
!!!OPS: Op. 25
!!!ONM: No. 12
!!!ENC: Ben Fuhrman
!!!YOR: Schumann Lieder - Max Friedlaender, ed.,
!!!YOR: New York: C. F. Peters, Vol. 1
!!!ODT: 1840/
!!NB: Vocal melody and text only encoded.
!!NB: First instance of melodic material only encoded.
**kern	**silbe
*clefG2	*
*k[b-]	*
*M2/4	*
!!created: 5/12/06 15:25
!!proofed and posted: 5/12/06 15:27
!!edit time: 15 minutes
=5	=5
{4.b-	{Lass
8b-	mich
=6	=6
4b-	ihm
4a	am
=7	=7
4g	Bu-
4a	-sen
=8	=8
4f	han-
4c}	-gen,}
=9	=9
{4.d	{Mut-
8d	-ter,
=10	=10
4d	Mut-
4e	-ter!
=11	=11
(4f	lass
8g)	|
8a	das
=12	=12
4a	Ban-
4g}	-gen.}
=13	=13
{4.cc	{Fra-
8cc	-ge
=14	=14
4cc	nicht:
4b-	wie
=15	=15
4a	soll
4b-	sich's
=16	=16
4g	wen-
4d}	den?}
=17	=17
{4cc.	{Fra-
8cc	-ge
=18	=18
4cc	nicht:
4b-	wie
=19	=19
4a	soll
4b-	das
=20	=20
4g	en-
4d	-den?
=21	=21
4b-	En-
8b-}	-den?}
8r	.
=22	=22
{4.b-	En-
8b-	-den
=23	=23
(8dd	soll
8cc)	|
(8b-	sich's
8cc)	|
=24	=24
2dd	nie,
=25	=25
4.dd	wen-
8cc}	den?}
=26	=26
{4b-	{noch
4a	nicht
=27	=27
(8g	weiss
8f)	|
(8e	ich,
8f)	|
=28	=28
4g}	wie!}
4r	.
=29	=29
{4.b-	{Lass
8b-	mich
=30	=30
4b-	ihm
4a	am
=31	=31
4g	Bu-
4a	-sen
=32	=32
4f	han-
4c}	-gen,}
!! rest to measure 36
=36	=36
{(8a	{lass
8f)	|
4f}	mich!}
==	==
*-	*-
